images/CB_icon.svg

<svg width="200" height="200" viewBox="0 0 200 200" fill="none" xmlns="http://www.w3.org/2000/svg">
<path fill-rule="evenodd" clip-rule="evenodd" d="M70.6971 153.002L162.5 100L137.901 85.798L70.6971 153.002ZM130.729 81.6569L116.465 73.4218L68.75 121.137V143.636L130.729 81.6569ZM68.75 109.823L109.293 69.2807L68.75 45.8734V109.823Z" fill="#FF3333"/>
<path fill-rule="evenodd" clip-rule="evenodd" d="M200 100C200 155.228 155.228 200 100 200C44.7715 200 0 155.228 0 100C0 44.7715 44.7715 0 100 0C155.228 0 200 44.7715 200 100ZM184.091 101.136C184.091 146.951 146.951 184.091 101.136 184.091C80.8037 184.091 62.1795 176.776 47.7522 164.634L164.634 47.7522C176.776 62.1795 184.091 80.8037 184.091 101.136ZM153.275 36.6116C139.029 25.0855 120.889 18.1818 101.136 18.1818C55.3218 18.1818 18.1818 55.3218 18.1818 101.136C18.1818 120.889 25.0855 139.029 36.6116 153.275L153.275 36.6116Z" fill="#FF3333"/>
</svg>

<?xml version="1.0" encoding="utf-8"?>
<!-- Generator: Adobe Illustrator 28.0.0, SVG Export Plug-In . SVG Version: 6.00 Build 0)  -->
<svg version="1.1" id="Layer_1" xmlns="http://www.w3.org/2000/svg" xmlns:xlink="http://www.w3.org/1999/xlink" x="0px" y="0px"
	 viewBox="0 0 200 200" style="enable-background:new 0 0 200 200;" xml:space="preserve">
<style type="text/css">
	.st0{fill-rule:evenodd;clip-rule:evenodd;fill:#559A67;}
</style>
<path class="st0" d="M70.7,153l91.8-53l-24.6-14.2L70.7,153z M130.7,81.7l-14.3-8.2l-47.7,47.7v22.5L130.7,81.7z M68.8,109.8
	l40.5-40.5L68.8,45.9V109.8z"/>
<path class="st0" d="M200,100c0,55.2-44.8,100-100,100C44.8,200,0,155.2,0,100C0,44.8,44.8,0,100,0C155.2,0,200,44.8,200,100z
	 M184.1,101.1c0,45.8-37.1,83-83,83c-20.3,0-39-7.3-53.4-19.5L164.6,47.8C176.8,62.2,184.1,80.8,184.1,101.1z M153.3,36.6
	c-14.2-11.5-32.4-18.4-52.1-18.4c-45.8,0-83,37.1-83,83c0,19.8,6.9,37.9,18.4,52.1L153.3,36.6z"/>
</svg>
